X: 144
T: Levantine's Barrel
C:
B: NEFR #144
N: AKA Bummer's Reel, Lancaster Reel, the Tullymore Piper
R: reel
Z: 2012 John Chambers <jc:trillian.mit.edu>
M: C|
L: 1/8
K: G
D2 |\
"G"GB DG B2 BA | G2 ed ^cd BG | "D7"FA DF AD FA | "G"GA Bc "D7"d2 BA |
"G"GB DG B2 BA | G2 ed ^cd BG | "D7"FA DF AD FA | "G"G2 B2 G2 :|
|: d2 |\
"C"e2 f2 g2 fe | "G"ed ^cd B2 AG | "D7"FA DF AD FA | "G"GA Bc "D7"d2 D2 |
"C"e2 f2 g2 fe | "G"ed ^cd B2 AG | "D7"FA DF AD FA | "G"G2 B2 G2 :|


